!!!COM: Vivaldi, Antonio Lucio
!!!CDT: 1678/03/04-1741/08/28
!!!OPR: 12 sonatas for two violins and basso continuo
!!!OTL: Sonata in E minor, op. @{OPS}, no. @{ONM} (@{SCT})
!!!OPS: 1
!!!ONM: 2
!!!OMV: 2. Corrente
!!!SCT: RV 67
!!!SCA: Antonio Vivaldi: Thematisch-systematisches Verzeichnis seiner Werke (Ryom-Verzeichnis)
!!!OMD: Allegro
!!!key: e
**kern	**dynam	**fb	**kern	**dynam	**kern	**dynam
*part3	*	*	*part2	*	*part1	*
*staff3	*	*	*staff2	*	*staff1	*
*ICstr&ICklav	*	*	*ICstr	*	*ICstr	*
*Icello&Icemba	*	*	*Ivioln	*	*Ivioln	*
*	*	*	*I#2	*	*I#1	*
*I"Violoncello\nContinuo	*	*	*I"Violin 2	*	*I"Violin 1	*
*I'bc	*	*	*I'v2	*	*I'v1	*
*>[A,A,B,B]	*>[A,A,B,B]	*>[A,A,B,B]	*>[A,A,B,B]	*>[A,A,B,B]	*>[A,A,B,B]	*>[A,A,B,B]
*>norep[A,B]	*>norep[A,B]	*>norep[A,B]	*>norep[A,B]	*>norep[A,B]	*>norep[A,B]	*>norep[A,B]
*>A	*>A	*>A	*>A	*>A	*>A	*>A
*clefF4	*	*	*clefG2	*	*clefG2	*
*k[f#]	*	*	*k[f#]	*	*k[f#]	*
*e:	*	*	*e:	*	*e:	*
*M3/4	*	*	*M3/4	*	*M3/4	*
*MM168	*	*	*MM168	*	*MM168	*
16r	.	.	16ee\	.	16r	.
=1	=1	=1	=1	=1	=1	=1
4e\	.	.	8.ee/L	.	4r	.
.	.	.	16b/k	.	.	.
4E\	.	.	8.g/	.	4r	.
.	.	.	16b/k	.	.	.
4r	.	.	8.e/	.	8r	.
.	.	.	.	.	16r	.
.	.	.	16ee/Jk	.	16bb\	.
=2	=2	=2	=2	=2	=2	=2
4B\	.	#	4dd#X\	.	8.bb\L	.
.	.	.	.	.	16ff#y\k	.
4BB/	.	.	4r	.	8.dd#X\	.
.	.	.	.	.	16ff#y\k	.
4r	.	.	4r	.	8.b\	.
.	.	.	.	.	16bb\Jk	.
=3	=3	=3	=3	=3	=3	=3
4e\	.	.	(8.ee\L	.	4gg\	.
.	.	.	16ddn\k)	.	.	.
4E\	.	7 #	(8.dd\	.	4r	.
.	.	.	16cc\k)	.	.	.
4r	.	.	(8.cc\	.	4r	.
.	.	.	16b\Jk)	.	.	.
=4	=4	=4	=4	=4	=4	=4
4A\	.	.	2.cc\	.	(8.aa\L	.
.	.	.	.	.	16gg\k)	.
4AA/	.	7	.	.	(8.gg\	.
.	.	.	.	.	16ff#y\k)	.
4r	.	.	.	.	(8.ff#y\	.
.	.	.	.	.	16ee\Jk)	.
=5	=5	=5	=5	=5	=5	=5
4d\	.	.	(8.dd\L	.	2.ff#y\	.
.	.	.	16cc\k)	.	.	.
4D\	.	7	(8.cc\	.	.	.
.	.	.	16b\k)	.	.	.
4r	.	.	(8.b\	.	.	.
.	.	.	16a\Jk)	.	.	.
!!LO:LB:g=original
=6	=6	=6	=6	=6	=6	=6
4G\	.	.	2.b\	.	(8.gg\L	.
.	.	.	.	.	16ff#y\k)	.
4GG/	.	7	.	.	(8.ff#y\	.
.	.	.	.	.	16ee\k)	.
4r	.	.	.	.	(8.ee\	.
.	.	.	.	.	16dd#X\Jk)	.
=7	=7	=7	=7	=7	=7	=7
4c\	.	.	(8.cc/L	.	2.ee\	.
.	.	.	16b/k)	.	.	.
4C/	.	7	(8.b/	.	.	.
.	.	.	16a/k)	.	.	.
4r	.	.	(8.a/	.	.	.
.	.	.	16g#X/Jk)	.	.	.
=8	=8	=8	=8	=8	=8	=8
4F#y\	.	.	2.a/	.	(8.ff#y\L	.
.	.	.	.	.	16ee\k)	.
4FF#y/	.	7	.	.	(8.ee\	.
.	.	.	.	.	16dd#X\k)	.
4r	.	.	.	.	(8.dd#y\	.
.	.	.	.	.	16cc#X\Jk)	.
=9	=9	=9	=9	=9	=9	=9
4B\	.	#	(8.b/L	.	4.dd#X\	.
.	.	.	16a/k)	.	.	.
4BB/	.	7	(8.a/	.	.	.
.	.	.	.	.	8b\	.
.	.	.	16gn/k)	.	.	.
4r	.	.	(8.g/	.	8.cc#X\L	.
.	.	.	16f#y/Jk)	.	16dd#y\Jk	.
=10	=10	=10	=10	=10	=10	=10
4E\	.	.	4g/	.	8.ee\L	.
.	.	.	.	.	16dd#X\k	.
4G\	.	6	4b\	.	8.ee\	.
.	.	.	.	.	16ff#y\k	.
4E\	.	.	4ee\	.	8.gg\	.
.	.	.	.	.	16aa\Jk	.
=11	=11	=11	=11	=11	=11	=11
2D#X\	.	6	8.ff#y\L	.	4bb\	.
.	.	.	16ee\k	.	.	.
.	.	.	8.ff#y\	.	8.b\L	.
.	.	.	16dd#X\k	.	16aa\k	.
4D#y\	.	.	8.ee\	.	8.gg\	.
.	.	.	16ff#y\Jk	.	16ff#y\Jk	.
=12	=12	=12	=12	=12	=12	=12
4E\	.	.	8.b\L	.	8.gg\L	.
.	.	.	16ee\Jk	.	16aa\Jk	.
4B\	.	5 4	4.ee\	.	2ff#y\t	.
4BB/	.	#	.	.	.	.
.	.	.	8dd#X\	.	.	.
!!LO:LB:g=original
=13	=13	=13	=13	=13	=13	=13
4E\	.	.	4ee\	.	8.ee\L	.
.	.	.	.	.	16b\k	.
4G\	.	6	4.b\	.	8.g\	.
.	.	.	.	.	16e\k	.
4E\	.	.	.	.	8.ee\	.
.	.	.	8ee\	.	.	.
.	.	.	.	.	16gg\Jk	.
=14	=14	=14	=14	=14	=14	=14
4B\	.	.	4dd#X\	.	8.ff#y\L	.
.	.	.	.	.	16dd#X\k	.
4d#X\	.	6	4ff#y\	.	8.b\	.
.	.	.	.	.	16f#y\k	.
4B\	.	.	4dd#y\	.	8.ff#y\	.
.	.	.	.	.	16aa\Jk	.
=15	=15	=15	=15	=15	=15	=15
8e\L	.	.	4b\	.	8gg\L	.
8dn\J	.	.	.	.	8bb\J	.
2c\	.	6	2ee\	.	(4.aa\T	.
.	.	.	.	.	16gg\LL	.
.	.	.	.	.	16aa\JJ)	.
=16	=16	=16	=16	=16	=16	=16
4B\	.	#	[2.dd#X\	.	8.bb\L	.
.	.	.	.	.	16ff#y\k	.
4BB/	.	.	.	.	8.bb\	.
.	.	.	.	.	16dd#X\k	.
4r	.	.	.	.	8.ff#y\	.
.	.	.	.	.	16b\Jk	.
=17	=17	=17	=17	=17	=17	=17
4B\	.	#	8.dd#y/L]	.	[2.b\	.
.	.	.	16f#y/k	.	.	.
4BB/	.	.	8.b/	.	.	.
.	.	.	16d#X/k	.	.	.
4r	.	.	8.f#y/	.	.	.
.	.	.	16B/Jk	.	.	.
=18	=18	=18	=18	=18	=18	=18
2BB/	.	#	2B	.	2b\]	.
8r	.	.	8r	.	8r	.
16r	.	.	16r	.	16r	.
!!LO:LB:g=original
=:|!|:	=:|!|:	=:|!|:	=:|!|:	=:|!|:	=:|!|:	=:|!|:
*>B	*>B	*>B	*>B	*>B	*>B	*>B
16r	.	.	16r	.	16bb\	.
=19	=19	=19	=19	=19	=19	=19
4B\	.	#	4r	.	8.bb\L	.
.	.	.	.	.	16ff#y\k	.
4BB/	.	.	4r	.	8.dd#X\	.
.	.	.	.	.	16ff#y\k	.
4r	.	.	8r	.	8.b\	.
.	.	.	16r	.	.	.
.	.	.	16ee\	.	16bb\Jk	.
=20	=20	=20	=20	=20	=20	=20
4e\	.	.	8.ee/L	.	4gg\	.
.	.	.	16b/k	.	.	.
4E\	.	.	8.g/	.	4r	.
.	.	.	16b/k	.	.	.
4r	.	.	8.e/	.	8r	.
.	.	.	.	.	16r	.
.	.	.	16ee/Jk	.	16aa\	.
=21	=21	=21	=21	=21	=21	=21
4A\	.	.	4cc\	.	8.aa\L	.
.	.	.	.	.	16ee\k	.
4AA/	.	.	4r	.	8.cc\	.
.	.	.	.	.	16ee\k	.
4r	.	.	8r	.	8.a\	.
.	.	.	16r	.	.	.
.	.	.	16dd\	.	16aa\Jk	.
=22	=22	=22	=22	=22	=22	=22
4d\	.	.	8.dd/L	.	4ff#y\	.
.	.	.	16a/k	.	.	.
4D\	.	.	8.f#y/	.	4r	.
.	.	.	16a/k	.	.	.
4r	.	.	8.d/	.	8r	.
.	.	.	.	.	16r	.
.	.	.	16dd/Jk	.	16gg\	.
=23	=23	=23	=23	=23	=23	=23
4G\	.	.	4b\	.	8.gg\L	.
.	.	.	.	.	16dd\k	.
4GG/	.	.	4r	.	8.b\	.
.	.	.	.	.	16dd\k	.
4BB/	.	6	4dd\	.	8.g\	.
.	.	.	.	.	16gg\Jk	.
=24	=24	=24	=24	=24	=24	=24
[4C/	.	5	[4g/	.	8.ee\L	.
.	.	.	.	.	16cc\Jk	.
8.C/L]	.	6	8.g\L]	.	4.aa\	.
16AA/k	.	.	16cc\k	.	.	.
8.BB/	.	.	8.dd\	.	.	.
.	.	.	.	.	8gg\	.
16C/Jk	.	.	16ee\Jk	.	.	.
!!LO:PB:g=original
=25	=25	=25	=25	=25	=25	=25
[4D\	.	5	[4a/	.	8.ff#y\L	.
.	.	.	.	.	16dd\Jk	.
8.D/L]	.	6	8.a\L]	.	4.bb\	.
16BB/k	.	.	16dd\k	.	.	.
8.C/	.	.	8.ee\	.	.	.
.	.	.	.	.	8aa\	.
16D/Jk	.	.	16ff#y\Jk	.	.	.
=26	=26	=26	=26	=26	=26	=26
[4E\	.	5	[4b\	.	8.gg\L	.
.	.	.	.	.	16ee\Jk	.
8.E\L]	.	6	8.b\L]	.	4.ccc\	.
16C\k	.	.	16ee\k	.	.	.
8.D\	.	.	8.ff#y\	.	.	.
.	.	.	.	.	8bb\	.
16E\Jk	.	.	16gg\Jk	.	.	.
=27	=27	=27	=27	=27	=27	=27
[4F#y\	.	6	[4dd\	.	8.aa\L	.
.	.	.	.	.	16gg\k	.
8.F#y\L]	.	.	8.dd\L]	.	8.ff#y\	.
16F#y\k	.	.	16cc\k	.	16ee\Jk	.
8.G\	.	.	8.b\	.	4dd\	.
16A\Jk	.	.	16a\Jk	.	.	.
=28	=28	=28	=28	=28	=28	=28
8.G\L	.	.	8.b\L	.	8.gg\L	.
16C\Jk	.	.	16cc\Jk	.	16aa\Jk	.
4D\	.	.	4.a/	.	4.ff#y\t	.
4DD/	.	.	.	.	.	.
.	.	.	8g/	.	8gg\	.
=29	=29	=29	=29	=29	=29	=29
4GG/	.	.	4g/	.	8.gg\L	.
.	.	.	.	.	16b\k	.
8r	.	.	4b\	.	8.dd\	.
16r	.	.	.	.	.	.
16D\	.	6 -	.	.	16ffn\k	.
8.D\L	.	.	4dd\	.	8.b\	.
16D\Jk	.	.	.	.	16dd\Jk	.
=30	=30	=30	=30	=30	=30	=30
8D/L	.	4#| 2	8e/L	.	8gg#X\L	.
16C/L	.	6	8cc/J	.	8aa\J	.
16D/JJ	.	.	.	.	.	.
4E\	.	5 4	2b\	.	4.aa\T	.
4EE/	.	#	.	.	.	.
.	.	.	.	.	8gg#y\	.
=31	=31	=31	=31	=31	=31	=31
4AA/	.	#	4a/	.	8.aa\L	.
.	.	.	.	.	16cc#X\k	.
8r	.	.	4cc#X\	.	8.ee\	.
16r	.	.	.	.	.	.
16E\	.	6#/	.	.	16ggn\k	.
8.E\L	.	.	4ee\	.	8.cc#y\	.
16E\Jk	.	.	.	.	16ee\Jk	.
!!LO:LB:g=original
=32	=32	=32	=32	=32	=32	=32
8E\L	.	4#| 2	8f#y/L	.	8aa#X\L	.
16D\L	.	6	8dd/J	.	8bb\J	.
16E\JJ	.	.	.	.	.	.
4F#y\	.	5#| 4	2cc#X\	.	4.bb\t	.
4FF#y/	.	#	.	.	.	.
.	.	.	.	.	8aa#y\	.
=33	=33	=33	=33	=33	=33	=33
2BB/	.	#	8.b\L	.	8.bb\L	.
.	.	.	16dd#X\k	.	16b\k	.
.	.	.	8.ee\	.	8.cc#X\	.
.	.	.	16ff#y\k	.	16dd#X\k	.
4AAn/	.	6#| 4	8.gg\	.	8.ee\	.
.	.	.	16aa\Jk	.	16ff#y\Jk	.
=34	=34	=34	=34	=34	=34	=34
2GG/	.	6	8.bb\L	.	8.gg\L	.
.	.	.	16b\k	.	16dd#X\k	.
.	.	.	8.cc#X\	.	8.ee\	.
.	.	.	16dd#X\k	.	16ff#y\k	.
4FF#y/	.	4 2	8.ee\	.	8.gg\	.
.	.	.	16ff#y\Jk	.	16aa\Jk	.
=35	=35	=35	=35	=35	=35	=35
4EE/	.	.	4gg\	.	4bb\	.
2AA/	.	5	4cc\	.	8.aa\L	.
.	.	.	.	.	16gg\k	.
.	.	6	4aa\	.	8.ff#y\	.
.	.	.	.	.	16ee\Jk	.
=36	=36	=36	=36	=36	=36	=36
2BB/	.	#	4ff#y\	.	8.dd#X\L	.
.	.	.	.	.	16cc#X\k	.
.	.	.	4r	.	8.b\	.
.	.	.	.	.	16bb\k	.
4E\	.	.	4gg\	.	8.aa\	.
.	.	.	.	.	16gg\Jk	.
=37	=37	=37	=37	=37	=37	=37
4A\	.	7	4gg\	.	[4ccc\	.
4d\	.	7	2ff#y\	.	8.ccc\L]	.
.	.	.	.	.	16aa\k	.
4r	.	.	.	.	8.gg\	.
.	.	.	.	.	16ff#y\Jk	.
=38	=38	=38	=38	=38	=38	=38
4G\	.	7	4ff#y\	.	[4bb\	.
4c\	.	7	2ee\	.	8.bb\L]	.
.	.	.	.	.	16gg\k	.
4r	.	.	.	.	8.ff#y\	.
.	.	.	.	.	16ee\Jk	.
!!LO:LB:g=original
=39	=39	=39	=39	=39	=39	=39
4F#y\	.	7	4ee\	.	[4aa\	.
4B\	.	7 #	2dd#X\	.	8.aa\L]	.
.	.	.	.	.	16ff#y\k	.
4r	.	.	.	.	8.ee\	.
.	.	.	.	.	16dd#X\Jk	.
=40	=40	=40	=40	=40	=40	=40
4E\	.	.	4ee\	.	4gg\	.
4AA/	.	.	2cc\	.	8.aa\L	.
.	.	.	.	.	16gg\k	.
[4A\	.	6	.	.	8.ff#y\	.
.	.	.	.	.	16ee\Jk	.
=41	=41	=41	=41	=41	=41	=41
4A\]	.	4#| 2	4b\	.	8.dd#X\L	.
.	.	.	.	.	16cc#X\k	.
8.B\L	.	#	4dd#X\	.	8.b\	.
16A\k	.	.	.	.	16dd#y\k	.
8.G\	.	6	4b\	.	8.ee\	.
16F#y\Jk	.	.	.	.	16ff#y\Jk	.
=42	=42	=42	=42	=42	=42	=42
8.G\L	.	6	8.ee\L	.	8.b\L	.
16A\Jk	.	.	16g\Jk	.	16ee\Jk	.
4B\	.	#	4.f#y/	.	4.dd#X\t	.
4BB/	.	.	.	.	.	.
.	.	.	8e/	.	8ee\	.
=43	=43	=43	=43	=43	=43	=43
8.E\L	.	.	4e/	.	4ee\	.
16B\k	p	.	.	.	.	.
8.e\	.	.	8r	.	4r	.
.	.	.	8bb\L	p	.	.
16d\k	.	.	.	.	.	.
8.c\	.	6	8.aa\	.	4gg\	p
16B\Jk	.	.	16gg\Jk	.	.	.
=44	=44	=44	=44	=44	=44	=44
4A\	.	7	[4ccc\	.	4gg\	.
4d\	.	7	8.ccc\L]	.	2ff#y\	.
.	.	.	16aa\k	.	.	.
4r	.	.	8.gg\	.	.	.
.	.	.	16ff#y\Jk	.	.	.
=45	=45	=45	=45	=45	=45	=45
4G\	.	7	[4bb\	.	4ff#y\	.
4c\	.	7	8.bb\L]	.	2ee\	.
.	.	.	16gg\k	.	.	.
4r	.	.	8.ff#y\	.	.	.
.	.	.	16ee\Jk	.	.	.
!!LO:LB:g=original
=46	=46	=46	=46	=46	=46	=46
4F#y\	.	7	[4aa\	.	4ee\	.
4B\	.	7 #	8.aa\L]	.	2dd#X\	.
.	.	.	16ff#y\k	.	.	.
4r	.	.	8.ee\	.	.	.
.	.	.	16dd#X\Jk	.	.	.
=47	=47	=47	=47	=47	=47	=47
4E\	.	.	4gg\	.	4ee\	.
4AA/	.	.	8.aa\L	.	2cc\	.
.	.	.	16gg\k	.	.	.
[4A\	.	6	8.ff#y\	.	.	.
.	.	.	16ee\Jk	.	.	.
=48	=48	=48	=48	=48	=48	=48
4A\]	.	4#| 2	8.dd#X\L	.	4b\	.
.	.	.	16cc#X\k	.	.	.
8.B\L	.	#	8.b\	.	4dd#X\	.
16A\k	.	.	16dd#y\k	.	.	.
8.G\	.	6	8.ee\	.	4b\	.
16F#y\Jk	.	.	16ff#y\Jk	.	.	.
=49	=49	=49	=49	=49	=49	=49
8.G\L	.	6	8.b\L	.	8.ee\L	.
16A\Jk	.	.	16ee\Jk	.	16g\Jk	.
4B\	.	#	4.dd#X\	.	4.f#y/t	.
4BB/	.	.	.	.	.	.
.	.	.	8ee\	.	8e/	.
=50	=50	=50	=50	=50	=50	=50
4E\	.	.	[2.ee\	.	8.e\L	f
.	.	.	.	.	16gg\k	.
4EE/	.	.	.	.	8.bb\	.
.	.	.	.	.	16ee\k	.
4r	.	.	.	.	8.gg\	.
.	.	.	.	.	16b\Jk	.
=51	=51	=51	=51	=51	=51	=51
4E\	f	.	8.ee/L]	f	[2.ee\	.
.	.	.	16g/k	.	.	.
4EE/	.	.	8.b/	.	.	.
.	.	.	16e/k	.	.	.
4r	.	.	8.g/	.	.	.
.	.	.	16B/Jk	.	.	.
=52	=52	=52	=52	=52	=52	=52
2EE/	.	.	2e/	.	2ee\]	.
8r	.	.	8r	.	8r	.
16r	.	.	16r	.	16r	.
=:|!	=:|!	=:|!	=:|!	=:|!	=:|!	=:|!
*-	*-	*-	*-	*-	*-	*-
!!!SMS: RV 67 / Estienne Roger (No. 363), Amsterdam [facs.]
!!!ENC: Fran Bennion   rev. 05/12/21 E Correia
!!!END: 2004/09/24
!!!ONB: Converted from MuseData with musedata2hum on Sat May 11 12:01:53 2024
!!!YEM: (C) 2004, 2019 Center for Computer Assisted Research in the Humanities
!!!system-decoration: [(s1,s2,s3)]
!!!URL-info: https://wiki.ccarh.org/wiki/MuseData:_Antonio_Vivaldi#Op._1:_Suonate_da_camera_a_tr.C3.A8.2C_due_violini_e_violone_o_cembalo Information about Vivaldi Op. 1 on the CCARH wiki
!!!URL-pdf: https://pdf.musedata.org/vivaldi-op01-no02.pdf#page=2 MuseData edition
!!!URL-pdf: https://s9.imslp.org/files/imglnks/usimg/1/10/IMSLP300295-PMLP10351-Vivaldi_-_Suonate_da_Camera_a_Tre,_Opera_Prima_-Violino_Primo-.pdf#page=4 Amsterdam: Estienne Roger, n.d.(ca.1723). Plate 363.
!!!URL-pdf: https://s9.imslp.org/files/imglnks/usimg/d/d5/IMSLP280400-PMLP10351-Vivaldi_Sonatas_Op_1_-_Violino_Secondo.pdf#page=4 Violino secondo part, Amsterdam: Estienne Roger, n.d.(ca.1723). Plate 363.
!!!URL-pdf: https://s9.imslp.org/files/imglnks/usimg/8/89/IMSLP280401-PMLP10351-Vivaldi_Sonatas_Op_1_-_Organo_e_Violoncello.pdf#page=4 Organo e Violoncello parts, Amsterdam: Estienne Roger, n.d.(ca.1723). Plate 363.
!!!URL-youtube: https://www.youtube.com/watch?v=P5HHPe_W6Uo&t=4798s L'Arte dell'Arco
!!!title: @{OTL}, mov. @{OMV}
!!!filter-vcross: vcross
!!!EEV: 2024/05/11
!!!source-file: https://bitbucket.org/musedata/vivaldi/src/master/roger/op1/no02/stage2/02/01
!!!source-file: https://bitbucket.org/musedata/vivaldi/src/master/roger/op1/no02/stage2/02/02
!!!source-file: https://bitbucket.org/musedata/vivaldi/src/master/roger/op1/no02/stage2/02/03
!!!source-file: https://bitbucket.org/musedata/vivaldi/src/master/roger/op1/no02/stage2/02/04
